src/icons/arrow-up-left.svg

<svg width="16" height="16" viewBox="0 0 16 16" fill="none" xmlns="http://www.w3.org/2000/svg">
<path d="M12.2929 13.7071C12.6834 14.0976 13.3166 14.0976 13.7071 13.7071C14.0976 13.3166 14.0976 12.6834 13.7071 12.2929L12.2929 13.7071ZM2 2V1C1.44771 1 0.999999 1.44772 0.999999 2H2ZM9 3C9.55228 3 10 2.55228 10 2C10 1.44772 9.55228 1 9 1V3ZM0.999999 9C0.999999 9.55229 1.44771 10 2 10C2.55228 10 3 9.55229 3 9H0.999999ZM13.7071 12.2929L2.70711 1.29289L1.29289 2.70711L12.2929 13.7071L13.7071 12.2929ZM2 3H9V1H2V3ZM0.999999 2V9H3V2H0.999999Z" fill="#24282B"/>
</svg>

<svg width="16" height="16" fill="none" xmlns="http://www.w3.org/2000/svg"><path d="M12.293 13.707a1 1 0 0 0 1.414-1.414l-1.414 1.414zM2 2V1a1 1 0 0 0-1 1h1zm7 1a1 1 0 0 0 0-2v2zM1 9a1 1 0 1 0 2 0H1zm12.707 3.293l-11-11-1.414 1.414 11 11 1.414-1.414zM2 3h7V1H2v2zM1 2v7h2V2H1z" fill="#24282B"/></svg>
